X:8873
T:La Chaumeilloise
C:Repertori 49
M:3/4
L:1/8
K:C
cd|e3f ed|c2c2 ef|g3f gf|g2g2 cd|\
e3f ed|c2c2 ef|g3f gf|g4 ga||
g3f df|e2c2 de|d3c Bc|d4 ga|\
g3f df|e2c2 de|d3c Bc|c4||**
